X:1
T:Title
%%score { ( 1 3 4 ) | ( 2 5 6 ) }
L:1/8
Q:1/4=100
M:4/4
K:G
V:1 treble nm="Grand Piano"
V:3 treble 
V:4 treble 
V:2 treble 
V:5 treble 
V:6 treble 
V:1
 G2 D>G B2 G>B | d>d d>e d4 | [Fd]>[Fd] [FA]>[FA] [FA]2 [Fd]2 | d4 B4 | G2 D>G B2 G>B | %5
w: William~J.~Kirkpatrick * * * * *|||||
 d>d d>e d4 | [Fd]>[Fd] [FA]>[FA] [FA]2 [Fd]2 | [GB]4 [B,DG]4 | G6 z2 | [Ge]2 [Ec]2 [EG]4 | %10
w: |||||
 z2 D2 z z/ B/ d>B | z4 A4 | z2 D2 z z/ A/ B>c | d2 B2 B4 | A>A A>A B2 ^c2 | [Fd]6 z2 | %16
w: ||||||
 [DB]2 B2 B2 [DB]2 | [GB]>B [GB]>B B2 B2 | c2 c2 c2 [Fc]2 | [Fc]>c [Fc]>c [Fc]2 [Fc]2 | B6 z2 | %21
w: |||||
 B2 d2 d2 B2 | [Ge][Ge] z2 [Gd][Gd] z2 | [A,DF][A,DF] z2 [B,DG]4 |] %24
w: |||
V:2
 [G,B,D]2 [G,B,]>[G,B,D] [G,DG]2 [G,B,D]>[G,B,G] | [G,B,G]>[G,B,G] [G,B,G]>[G,CG] [G,B,G]4 | %2
 [D,A,]>[D,A,] [D,D]>[D,D] [D,D]2 [D,A,]2 | [G,B,G]4 [G,DG]4 | %4
 [G,B,D]2 [G,B,]>[G,B,D] [G,DG]2 [G,B,D]>[G,DG] | [G,B,G]>[G,B,G] [G,B,G]>[G,CG] [G,B,G]4 | %6
 [D,A,]>[D,A,] [D,D]>[D,D] [D,D]2 [D,D]2 | [G,D]4 [G,,G,]4 | %8
 [C,C]2 [C,C]2 [C,C]2 z z/[K:treble] d/ | [C,C]2 [C,G,]2 [C,C]4 | %10
 [G,B,D]2 [G,B,]2 [G,B,]2 [G,B,D]2 | [F,D]2 [E,G,^C]2 D2 z2 | %12
 [G,B,]2 [G,B,]2 [G,B,]2[K:treble] [G,DG]2 | [G,B,G]2 [G,DG]2 [G,DG]4 | %14
 [A,DF]>[A,DF] [A,DF]>[A,DF] [A,^CG]2 [A,G]2 | [D,A,]6 z2 | z4 D2 z2 | %17
 z z/[K:treble] G/ z z/ G/ [B,G]2 [DG]2 | z4 F2[K:bass] z2 | z z/ F/ z z/ F/ D,2 D,2 | %20
 [G,DG]2 [G,D]2 [G,D]2 [G,B,D]2 | [G,DG]2 [G,B,G]2 [G,B,G]2 [G,DG]2 | %22
 [C,C][C,C] z2 [D,B,][D,B,] z2 | D,D, z2 G,,4 |] %24
V:3
 x8 | x8 | x8 | x8 | x8 | x8 | x8 | x8 | E2 E2 z z/ G/ [CEc]2 | x8 | G6 z2 | A2 E2 z2 C2 | G6 z2 | %13
 x8 | x8 | x8 | x8 | x8 | x8 | x8 | z2 G2 z z/ A/ G>A | x8 | x8 | x8 |] %24
V:4
 x8 | x8 | x8 | x8 | x8 | x8 | x8 | x8 | z4 E2 z2 | x8 | z4 D2 z2 | x8 | z4 D2 z2 | x8 | x8 | x8 | %16
 x8 | x8 | x8 | x8 | z4 G2 z2 | x8 | x8 | x8 |] %24
V:5
 x8 | x8 | x8 | x8 | x8 | x8 | x8 | x8 | z4 z2 C,2[K:treble] | x8 | x8 | z4 [D,F,]4 | %12
 x6[K:treble] x2 | x8 | x8 | x8 | z2 D2 z z/ G,/ F,>E, | D,2[K:treble] G,2 z4 | %18
 F2 F2 z z/[K:bass] B,/ A,>G, | F,2 E,2 z4 | x8 | x8 | x8 | x8 |] %24
V:6
 x8 | x8 | x8 | x8 | x8 | x8 | x8 | x8 | x15/2[K:treble] x/ | x8 | x8 | x8 | x6[K:treble] x2 | x8 | %14
 x8 | x8 | G,6 z2 | x3/2[K:treble] x13/2 | A,6[K:bass] z2 | x8 | x8 | x8 | x8 | x8 |] %24

